X:1
T:DarkEyes
T:Otchi Tchornyia
C:Traditional Russian Tune
M:3/4
L:1/4
Q:1/4=80
K:G
V:1
P:A Instrumental
|!fermata!^A !fermata!B|"B"c3/2 B/2 B|z ^A B|c3/2 B/2 B
|"Em"z B e|"Cdim"e3/2 ^d/2 "B7"d|"B"z f g|"Em"f3/2 e/2 e
|"Cdim7"z e g|"Am7"g3/2 f/2 c|"F#m7"z g f|"Em"f3/2 e/2 B
|"B7"z ^A B|c3/2 B/2 B|z f g|"Em"e3/2 e/2 e||
P:B Vocal
|:"B"z ^A B|c3/2 B/2 B|z ^A B|c3/2 B/2 B
w:O-tchi tchor-ny-ia, O-tchi yas-ny-ia,
w:Oozh nie da-rom Ya, V'gloo-bi-nie o-tchey,
|"Em"z B e|"Cdim"e3/2 ^d/2 "B7"d|"B"z f g|"Em"f3/2 e/2 e
w:O-tchi zhgoo-tchi-ya, Yi pre kras-ni-ya.
w:Vee-zhoo tra-ur v'nich, Po doo-sheh mo-yei.
|"Cdim7"z e g|"Am7"g3/2 f/2 c|"F#m7"z g f|"Em"f3/2 e/2 B
w:Kak loob-loo ya vas, Kak bo-yoos Ya vas,
w:Ni vstre-tcha-lis bee, Nie vloo-bee-lis bee,
|"B7"z ^A B|c3/2 B/2 B|z f g|"Em"e3/2 e/2 e
w:Znat u-vi-diel vas, Ya v'nie dob-ry-tchas.
w:Nie stra da-lee bee, Nie raz-sta-lis bee.
|"B7"z ^A B|c3/2 B/2 B|z F G|"Em"E3/2 E/2 E:|!fermata!E||
